assets/settings-005bf8db.svg

<svg width="64" height="64" viewBox="0 0 64 64" fill="none" xmlns="http://www.w3.org/2000/svg">
    <path d="M38 20C37.4477 20 37 20.4477 37 21V23H17C16.4477 23 16 23.4477 16 24V26C16 26.5523 16.4477 27 17 27H37V29C37 29.5523 37.4477 30 38 30H41C41.5523 30 42 29.5523 42 29V27H47C47.5523 27 48 26.5523 48 26V24C48 23.4477 47.5523 23 47 23H42V21C42 20.4477 41.5523 20 41 20H38Z" fill="#1976D2"/>
    <path d="M17 37C16.4477 37 16 37.4477 16 38V40C16 40.5523 16.4477 41 17 41H22V43C22 43.5523 22.4477 44 23 44H26C26.5523 44 27 43.5523 27 43V41H47C47.5523 41 48 40.5523 48 40V38C48 37.4477 47.5523 37 47 37H27V35C27 34.4477 26.5523 34 26 34H23C22.4477 34 22 34.4477 22 35V37H17Z" fill="#1976D2"/>
    <rect x="0.5" y="0.5" width="63" height="63" rx="31.5" stroke="#D3D3D3"/>
</svg>

<svg xmlns="http://www.w3.org/2000/svg" width="64" height="64" fill="none" viewBox="0 0 64 64"><path fill="#1976D2" d="M38 20a1 1 0 0 0-1 1v2H17a1 1 0 0 0-1 1v2a1 1 0 0 0 1 1h20v2a1 1 0 0 0 1 1h3a1 1 0 0 0 1-1v-2h5a1 1 0 0 0 1-1v-2a1 1 0 0 0-1-1h-5v-2a1 1 0 0 0-1-1zM17 37a1 1 0 0 0-1 1v2a1 1 0 0 0 1 1h5v2a1 1 0 0 0 1 1h3a1 1 0 0 0 1-1v-2h20a1 1 0 0 0 1-1v-2a1 1 0 0 0-1-1H27v-2a1 1 0 0 0-1-1h-3a1 1 0 0 0-1 1v2z"/><rect width="63" height="63" x="0.5" y="0.5" stroke="#D3D3D3" rx="31.5"/></svg>
